src/Assets/Icons/personal.svg

<?xml version="1.0"?>
<svg xmlns="http://www.w3.org/2000/svg" id="Layer_3" enable-background="new 0 0 64 64" height="512px" viewBox="0 0 64 64" width="512px" class=""><g><g><path d="m46 62h-44v-60h36v8h8z" fill="#3c98f4" data-original="#3C98F4" class="" style="fill:#374957" data-old_color="#3c98f4"/><path d="m55 46h-3l-5 6-5-6h-3c-3.866 0-7 3.134-7 7v9h30v-9c0-3.866-3.134-7-7-7z" fill="#c7e2fb" data-original="#C7E2FB" class="" style="fill:#374957" data-old_color="#c7e2fb"/><path d="m52 46-5 6-5-6h-3c-3.866 0-7 3.134-7 7v4.747c1.307.164 2.641.253 4 .253 9.595 0 18.059-4.225 23.104-10.662-1.154-.838-2.569-1.338-4.104-1.338z" fill="#ebf7fe" data-original="#EBF7FE" class="" style="fill:#5F7D95" data-old_color="#ebf7fe"/><path d="m38.025 46.076 2.975 8.924 6-3-5-6h-3.001c-.331 0-.655.031-.974.076z" fill="#4472b0" data-original="#4472B0" class="" style="fill:#374957" data-old_color="#4472b0"/><g><path d="m47 52-2.8 1.4 1.8 3.6h2l1.8-3.6z" fill="#2d4d81" data-original="#2D4D81" class="" style="fill:#5F7D95" data-old_color="#2d4d81"/></g><path d="m55.975 46.076c-.319-.045-.643-.076-.974-.076h-3.001l-5 6 6 3z" fill="#4472b0" data-original="#4472B0" class="" style="fill:#374957" data-old_color="#4472b0"/><path d="m47 44c-1.851 0-3.57-.56-5-1.518v3.518l5 6 5-6v-3.518c-1.43.958-3.149 1.518-5 1.518z" fill="#efbe9c" data-original="#EFBE9C" class="" style="fill:#5F7D95" data-old_color="#efbe9c"/><path d="m50 62-2-5h-2l-2 5z" fill="#4472b0" data-original="#4472B0" class="" style="fill:#374957" data-old_color="#4472b0"/><path d="m56 33v2c0 4.971-4.029 9-9 9-4.971 0-9-4.029-9-9v-2h6c1.889 0 3.667-.889 4.8-2.4l1.2-1.6 1.2 1.6c1.133 1.511 2.911 2.4 4.8 2.4z" fill="#efbe9c" data-original="#EFBE9C" class="" style="fill:#5F7D95" data-old_color="#efbe9c"/><path d="m38 35v-2h-1.5c-1.381 0-2.5 1.119-2.5 2.5s1.119 2.5 2.5 2.5h2.023c-.333-.94-.523-1.946-.523-3z" fill="#efbe9c" data-original="#EFBE9C" class="" style="fill:#5F7D95" data-old_color="#efbe9c"/><g><path d="m47 20c-5.523 0-10 4.477-10 10v3h1 6c1.889 0 3.667-.889 4.8-2.4l1.2-1.6 1.2 1.6c1.133 1.511 2.911 2.4 4.8 2.4h1v-3c0-5.523-4.477-10-10-10z" fill="#976949" data-original="#976949" class="" style="fill:#374957" data-old_color="#976949"/></g><path d="m57.5 33h-1.5v2c0 1.054-.19 2.06-.523 3h2.023c1.381 0 2.5-1.119 2.5-2.5s-1.119-2.5-2.5-2.5z" fill="#efbe9c" data-original="#EFBE9C" class="" style="fill:#5F7D95" data-old_color="#efbe9c"/><g fill="#8ac1f8"><path d="m46 10-8-8v8z" data-original="#8AC1F8" class="active-path" data-old_color="#8AC1F8" style="fill:#5F7D95"/><path d="m6 10h8v8h-8z" data-original="#8AC1F8" class="active-path" data-old_color="#8AC1F8" style="fill:#5F7D95"/><path d="m6 22h8v8h-8z" data-original="#8AC1F8" class="active-path" data-old_color="#8AC1F8" style="fill:#5F7D95"/><path d="m6 34h8v8h-8z" data-original="#8AC1F8" class="active-path" data-old_color="#8AC1F8" style="fill:#5F7D95"/><path d="m6 46h8v8h-8z" data-original="#8AC1F8" class="active-path" data-old_color="#8AC1F8" style="fill:#5F7D95"/></g><g><path d="m62 63c.553 0 1-.448 1-1v-9c0-4.411-3.589-8-8-8h-2v-2.019c1.367-1.03 2.464-2.395 3.159-3.981h1.341c1.93 0 3.5-1.57 3.5-3.5 0-1.758-1.308-3.204-3-3.449v-2.051c0-6.065-4.935-11-11-11v-9c0-.277-.112-.527-.294-.708l-7.998-7.998c-.181-.182-.431-.294-.708-.294h-36c-.553 0-1 .448-1 1v60c0 .552.447 1 1 1zm-20.469-16 3.892 4.67-3.839 1.92-2.197-6.59zm5.146 11h.645l1.2 3h-3.045zm.705-2h-.764l-1.076-2.153 1.458-.729 1.458.729zm1.195-4.33 3.892-4.67h2.144l-2.197 6.59zm2.423-6.032-4 4.8-4-4.8v-1.479c1.226.538 2.578.841 4 .841s2.774-.303 4-.841zm4-10.638c0 4.411-3.589 8-8 8s-8-3.589-8-8v-1h5c2.191 0 4.285-1.047 5.6-2.8l.4-.534.4.534c1.112 1.484 2.783 2.462 4.6 2.727zm4 .5c0 .827-.673 1.5-1.5 1.5h-.702c.132-.646.202-1.315.202-2v-1h.5c.827 0 1.5.673 1.5 1.5zm-3-5.5v2c-1.565 0-3.061-.748-4-2l-1.2-1.6c-.377-.504-1.223-.504-1.6 0l-1.2 1.6c-.939 1.252-2.435 2-4 2h-6v-2c0-4.962 4.037-9 9-9s9 4.038 9 9zm-18.798 7h-.702c-.827 0-1.5-.673-1.5-1.5s.673-1.5 1.5-1.5h.5v1c0 .685.07 1.354.202 2zm1.798-32.586 4.586 4.586h-4.586zm-36-1.414h34v7c0 .552.447 1 1 1h7v8.191c-5.112.944-9 5.427-9 10.809v2.051c-1.527.221-2.728 1.423-2.949 2.949h-14.051v2h14.351c.564 1.178 1.758 2 3.149 2h1.341c.695 1.586 1.793 2.951 3.159 3.981v2.019h-2c-2.021 0-3.864.759-5.274 2h-14.726v2h13.082c-.36.619-.635 1.29-.819 2h-12.263v2h12v8h-28zm30 50c0-2.739 1.846-5.049 4.358-5.766l2.694 8.082c.091.275.298.497.565.607.123.052.253.077.383.077.153 0 .307-.035.447-.105l2.305-1.153 1.152 2.304-1.581 3.954h-10.323zm28 8h-10.323l-1.582-3.955 1.152-2.304 2.305 1.153c.141.071.295.106.448.106.13 0 .26-.025.383-.076.268-.111.475-.333.565-.607l2.694-8.082c2.512.716 4.358 3.026 4.358 5.765z" data-original="#000000" class="" style="fill:#000000" data-old_color="#000000"/><path d="m13.586 9h-7.586c-.553 0-1 .448-1 1v8c0 .552.447 1 1 1h8c.553 0 1-.448 1-1v-7.586l2.707-2.707-1.414-1.414zm-.586 8h-6v-6h4.586l-3.293 3.293 1.414 1.414 3.293-3.293z" data-original="#000000" class="" style="fill:#000000" data-old_color="#000000"/><path d="m13.586 21h-7.586c-.553 0-1 .448-1 1v8c0 .552.447 1 1 1h8c.553 0 1-.448 1-1v-7.586l2.707-2.707-1.414-1.414zm-.586 8h-6v-6h4.586l-3.293 3.293 1.414 1.414 3.293-3.293z" data-original="#000000" class="" style="fill:#000000" data-old_color="#000000"/><path d="m13.586 33h-7.586c-.553 0-1 .448-1 1v8c0 .552.447 1 1 1h8c.553 0 1-.448 1-1v-7.586l2.707-2.707-1.414-1.414zm-.586 8h-6v-6h4.586l-3.293 3.293 1.414 1.414 3.293-3.293z" data-original="#000000" class="" style="fill:#000000" data-old_color="#000000"/><path d="m16.293 42.293-2.707 2.707h-7.586c-.553 0-1 .448-1 1v8c0 .552.447 1 1 1h8c.553 0 1-.448 1-1v-7.586l2.707-2.707zm-3.293 10.707h-6v-6h4.586l-3.293 3.293 1.414 1.414 3.293-3.293z" data-original="#000000" class="" style="fill:#000000" data-old_color="#000000"/><path d="m19 11h16v2h-16z" data-original="#000000" class="" style="fill:#000000" data-old_color="#000000"/><path d="m19 15h16v2h-16z" data-original="#000000" class="" style="fill:#000000" data-old_color="#000000"/><path d="m19 23h16v2h-16z" data-original="#000000" class="" style="fill:#000000" data-old_color="#000000"/><path d="m19 27h16v2h-16z" data-original="#000000" class="" style="fill:#000000" data-old_color="#000000"/><path d="m19 39h16v2h-16z" data-original="#000000" class="" style="fill:#000000" data-old_color="#000000"/></g></g></g> </svg>

<?xml version="1.0" encoding="UTF-8" standalone="no"?>
<svg
   xmlns:dc="http://purl.org/dc/elements/1.1/"
   xmlns:cc="http://creativecommons.org/ns#"
   xmlns:rdf="http://www.w3.org/1999/02/22-rdf-syntax-ns#"
   xmlns:svg="http://www.w3.org/2000/svg"
   xmlns="http://www.w3.org/2000/svg"
   xmlns:sodipodi="http://sodipodi.sourceforge.net/DTD/sodipodi-0.dtd"
   xmlns:inkscape="http://www.inkscape.org/namespaces/inkscape"
   id="Layer_3"
   enable-background="new 0 0 64 64"
   height="50"
   viewBox="0 0 6.25 6.25"
   width="50"
   class=""
   version="1.1"
   sodipodi:docname="personal.svg"
   inkscape:version="0.92.4 (5da689c313, 2019-01-14)">
  <metadata
     id="metadata73">
    <rdf:RDF>
      <cc:Work
         rdf:about="">
        <dc:format>image/svg+xml</dc:format>
        <dc:type
           rdf:resource="http://purl.org/dc/dcmitype/StillImage" />
        <dc:title></dc:title>
      </cc:Work>
    </rdf:RDF>
  </metadata>
  <defs
     id="defs71" />
  <sodipodi:namedview
     pagecolor="#ffffff"
     bordercolor="#666666"
     borderopacity="1"
     objecttolerance="10"
     gridtolerance="10"
     guidetolerance="10"
     inkscape:pageopacity="0"
     inkscape:pageshadow="2"
     inkscape:window-width="1920"
     inkscape:window-height="1017"
     id="namedview69"
     showgrid="false"
     inkscape:zoom="2.6074563"
     inkscape:cx="106.38038"
     inkscape:cy="28.901078"
     inkscape:window-x="-8"
     inkscape:window-y="-8"
     inkscape:window-maximized="1"
     inkscape:current-layer="Layer_3" />
  <g
     id="g66"
     transform="matrix(0.0953149,0,0,0.0953149,0.13765401,0.0601318)">
    <g
       id="g64">
      <path
         d="M 46,62 H 2 V 2 h 36 v 8 h 8 z"
         data-original="#3C98F4"
         class=""
         style="fill:#374957"
         data-old_color="#3c98f4"
         id="path2"
         inkscape:connector-curvature="0" />
      <path
         d="m 55,46 h -3 l -5,6 -5,-6 h -3 c -3.866,0 -7,3.134 -7,7 v 9 h 30 v -9 c 0,-3.866 -3.134,-7 -7,-7 z"
         data-original="#C7E2FB"
         class=""
         style="fill:#374957"
         data-old_color="#c7e2fb"
         id="path4"
         inkscape:connector-curvature="0" />
      <path
         d="m 52,46 -5,6 -5,-6 h -3 c -3.866,0 -7,3.134 -7,7 v 4.747 C 33.307,57.911 34.641,58 36,58 45.595,58 54.059,53.775 59.104,47.338 57.95,46.5 56.535,46 55,46 Z"
         data-original="#EBF7FE"
         class=""
         style="fill:#5f7d95"
         data-old_color="#ebf7fe"
         id="path6"
         inkscape:connector-curvature="0" />
      <path
         d="M 38.025,46.076 41,55 47,52 42,46 h -3.001 c -0.331,0 -0.655,0.031 -0.974,0.076 z"
         data-original="#4472B0"
         class=""
         style="fill:#374957"
         data-old_color="#4472b0"
         id="path8"
         inkscape:connector-curvature="0" />
      <g
         id="g12">
        <path
           d="M 47,52 44.2,53.4 46,57 h 2 l 1.8,-3.6 z"
           data-original="#2D4D81"
           class=""
           style="fill:#5f7d95"
           data-old_color="#2d4d81"
           id="path10"
           inkscape:connector-curvature="0" />
      </g>
      <path
         d="M 55.975,46.076 C 55.656,46.031 55.332,46 55.001,46 H 52 l -5,6 6,3 z"
         data-original="#4472B0"
         class=""
         style="fill:#374957"
         data-old_color="#4472b0"
         id="path14"
         inkscape:connector-curvature="0" />
      <path
         d="m 47,44 c -1.851,0 -3.57,-0.56 -5,-1.518 V 46 l 5,6 5,-6 V 42.482 C 50.57,43.44 48.851,44 47,44 Z"
         data-original="#EFBE9C"
         class=""
         style="fill:#5f7d95"
         data-old_color="#efbe9c"
         id="path16"
         inkscape:connector-curvature="0" />
      <path
         d="m 50,62 -2,-5 h -2 l -2,5 z"
         data-original="#4472B0"
         class=""
         style="fill:#374957"
         data-old_color="#4472b0"
         id="path18"
         inkscape:connector-curvature="0" />
      <path
         d="m 56,33 v 2 c 0,4.971 -4.029,9 -9,9 -4.971,0 -9,-4.029 -9,-9 v -2 h 6 c 1.889,0 3.667,-0.889 4.8,-2.4 L 50,29 l 1.2,1.6 c 1.133,1.511 2.911,2.4 4.8,2.4 z"
         data-original="#EFBE9C"
         class=""
         style="fill:#5f7d95"
         data-old_color="#efbe9c"
         id="path20"
         inkscape:connector-curvature="0" />
      <path
         d="m 38,35 v -2 h -1.5 c -1.381,0 -2.5,1.119 -2.5,2.5 0,1.381 1.119,2.5 2.5,2.5 h 2.023 C 38.19,37.06 38,36.054 38,35 Z"
         data-original="#EFBE9C"
         class=""
         style="fill:#5f7d95"
         data-old_color="#efbe9c"
         id="path22"
         inkscape:connector-curvature="0" />
      <g
         id="g26">
        <path
           d="m 47,20 c -5.523,0 -10,4.477 -10,10 v 3 h 1 6 c 1.889,0 3.667,-0.889 4.8,-2.4 L 50,29 l 1.2,1.6 c 1.133,1.511 2.911,2.4 4.8,2.4 h 1 V 30 C 57,24.477 52.523,20 47,20 Z"
           data-original="#976949"
           class=""
           style="fill:#374957"
           data-old_color="#976949"
           id="path24"
           inkscape:connector-curvature="0" />
      </g>
      <path
         d="M 57.5,33 H 56 v 2 c 0,1.054 -0.19,2.06 -0.523,3 H 57.5 C 58.881,38 60,36.881 60,35.5 60,34.119 58.881,33 57.5,33 Z"
         data-original="#EFBE9C"
         class=""
         style="fill:#5f7d95"
         data-old_color="#efbe9c"
         id="path28"
         inkscape:connector-curvature="0" />
      <g
         id="g40"
         style="fill:#8ac1f8">
        <path
           d="M 46,10 38,2 v 8 z"
           data-original="#8AC1F8"
           class="active-path"
           data-old_color="#8AC1F8"
           style="fill:#5f7d95"
           id="path30"
           inkscape:connector-curvature="0" />
        <path
           d="m 6,10 h 8 v 8 H 6 Z"
           data-original="#8AC1F8"
           class="active-path"
           data-old_color="#8AC1F8"
           style="fill:#5f7d95"
           id="path32"
           inkscape:connector-curvature="0" />
        <path
           d="m 6,22 h 8 v 8 H 6 Z"
           data-original="#8AC1F8"
           class="active-path"
           data-old_color="#8AC1F8"
           style="fill:#5f7d95"
           id="path34"
           inkscape:connector-curvature="0" />
        <path
           d="m 6,34 h 8 v 8 H 6 Z"
           data-original="#8AC1F8"
           class="active-path"
           data-old_color="#8AC1F8"
           style="fill:#5f7d95"
           id="path36"
           inkscape:connector-curvature="0" />
        <path
           d="m 6,46 h 8 v 8 H 6 Z"
           data-original="#8AC1F8"
           class="active-path"
           data-old_color="#8AC1F8"
           style="fill:#5f7d95"
           id="path38"
           inkscape:connector-curvature="0" />
      </g>
      <g
         id="g62">
        <path
           d="m 62,63 c 0.553,0 1,-0.448 1,-1 v -9 c 0,-4.411 -3.589,-8 -8,-8 H 53 V 42.981 C 54.367,41.951 55.464,40.586 56.159,39 H 57.5 c 1.93,0 3.5,-1.57 3.5,-3.5 0,-1.758 -1.308,-3.204 -3,-3.449 V 30 C 58,23.935 53.065,19 47,19 V 10 C 47,9.723 46.888,9.473 46.706,9.292 L 38.708,1.294 C 38.527,1.112 38.277,1 38,1 H 2 C 1.447,1 1,1.448 1,2 v 60 c 0,0.552 0.447,1 1,1 z M 41.531,47 45.423,51.67 41.584,53.59 39.387,47 Z m 5.146,11 h 0.645 l 1.2,3 h -3.045 z m 0.705,-2 H 46.618 L 45.542,53.847 47,53.118 48.458,53.847 Z M 48.577,51.67 52.469,47 h 2.144 l -2.197,6.59 z M 51,45.638 l -4,4.8 -4,-4.8 v -1.479 c 1.226,0.538 2.578,0.841 4,0.841 1.422,0 2.774,-0.303 4,-0.841 z M 55,35 c 0,4.411 -3.589,8 -8,8 -4.411,0 -8,-3.589 -8,-8 v -1 h 5 c 2.191,0 4.285,-1.047 5.6,-2.8 L 50,30.666 50.4,31.2 c 1.112,1.484 2.783,2.462 4.6,2.727 z m 4,0.5 C 59,36.327 58.327,37 57.5,37 H 56.798 C 56.93,36.354 57,35.685 57,35 v -1 h 0.5 c 0.827,0 1.5,0.673 1.5,1.5 z M 56,30 v 2 c -1.565,0 -3.061,-0.748 -4,-2 l -1.2,-1.6 c -0.377,-0.504 -1.223,-0.504 -1.6,0 L 48,30 c -0.939,1.252 -2.435,2 -4,2 h -6 v -2 c 0,-4.962 4.037,-9 9,-9 4.963,0 9,4.038 9,9 z M 37.202,37 H 36.5 C 35.673,37 35,36.327 35,35.5 35,34.673 35.673,34 36.5,34 H 37 v 1 c 0,0.685 0.07,1.354 0.202,2 z M 39,4.414 43.586,9 H 39 Z M 3,3 h 34 v 7 c 0,0.552 0.447,1 1,1 h 7 v 8.191 C 39.888,20.135 36,24.618 36,30 v 2.051 C 34.473,32.272 33.272,33.474 33.051,35 H 19 v 2 h 14.351 c 0.564,1.178 1.758,2 3.149,2 h 1.341 c 0.695,1.586 1.793,2.951 3.159,3.981 V 45 h -2 c -2.021,0 -3.864,0.759 -5.274,2 H 19 v 2 h 13.082 c -0.36,0.619 -0.635,1.29 -0.819,2 H 19 v 2 h 12 v 8 H 3 Z m 30,50 c 0,-2.739 1.846,-5.049 4.358,-5.766 l 2.694,8.082 c 0.091,0.275 0.298,0.497 0.565,0.607 C 40.74,55.975 40.87,56 41,56 c 0.153,0 0.307,-0.035 0.447,-0.105 l 2.305,-1.153 1.152,2.304 L 43.323,61 H 33 Z m 28,8 H 50.677 l -1.582,-3.955 1.152,-2.304 2.305,1.153 C 52.693,55.965 52.847,56 53,56 c 0.13,0 0.26,-0.025 0.383,-0.076 0.268,-0.111 0.475,-0.333 0.565,-0.607 l 2.694,-8.082 C 59.154,47.951 61,50.261 61,53 Z"
           data-original="#000000"
           class=""
           style="fill:#000000"
           data-old_color="#000000"
           id="path42"
           inkscape:connector-curvature="0" />
        <path
           d="M 13.586,9 H 6 C 5.447,9 5,9.448 5,10 v 8 c 0,0.552 0.447,1 1,1 h 8 c 0.553,0 1,-0.448 1,-1 V 10.414 L 17.707,7.707 16.293,6.293 Z M 13,17 H 7 v -6 h 4.586 L 8.293,14.293 9.707,15.707 13,12.414 Z"
           data-original="#000000"
           class=""
           style="fill:#000000"
           data-old_color="#000000"
           id="path44"
           inkscape:connector-curvature="0" />
        <path
           d="M 13.586,21 H 6 c -0.553,0 -1,0.448 -1,1 v 8 c 0,0.552 0.447,1 1,1 h 8 c 0.553,0 1,-0.448 1,-1 v -7.586 l 2.707,-2.707 -1.414,-1.414 z M 13,29 H 7 v -6 h 4.586 L 8.293,26.293 9.707,27.707 13,24.414 Z"
           data-original="#000000"
           class=""
           style="fill:#000000"
           data-old_color="#000000"
           id="path46"
           inkscape:connector-curvature="0" />
        <path
           d="M 13.586,33 H 6 c -0.553,0 -1,0.448 -1,1 v 8 c 0,0.552 0.447,1 1,1 h 8 c 0.553,0 1,-0.448 1,-1 v -7.586 l 2.707,-2.707 -1.414,-1.414 z M 13,41 H 7 v -6 h 4.586 L 8.293,38.293 9.707,39.707 13,36.414 Z"
           data-original="#000000"
           class=""
           style="fill:#000000"
           data-old_color="#000000"
           id="path48"
           inkscape:connector-curvature="0" />
        <path
           d="M 16.293,42.293 13.586,45 H 6 c -0.553,0 -1,0.448 -1,1 v 8 c 0,0.552 0.447,1 1,1 h 8 c 0.553,0 1,-0.448 1,-1 v -7.586 l 2.707,-2.707 z M 13,53 H 7 v -6 h 4.586 L 8.293,50.293 9.707,51.707 13,48.414 Z"
           data-original="#000000"
           class=""
           style="fill:#000000"
           data-old_color="#000000"
           id="path50"
           inkscape:connector-curvature="0" />
        <path
           d="m 19,11 h 16 v 2 H 19 Z"
           data-original="#000000"
           class=""
           style="fill:#000000"
           data-old_color="#000000"
           id="path52"
           inkscape:connector-curvature="0" />
        <path
           d="m 19,15 h 16 v 2 H 19 Z"
           data-original="#000000"
           class=""
           style="fill:#000000"
           data-old_color="#000000"
           id="path54"
           inkscape:connector-curvature="0" />
        <path
           d="m 19,23 h 16 v 2 H 19 Z"
           data-original="#000000"
           class=""
           style="fill:#000000"
           data-old_color="#000000"
           id="path56"
           inkscape:connector-curvature="0" />
        <path
           d="m 19,27 h 16 v 2 H 19 Z"
           data-original="#000000"
           class=""
           style="fill:#000000"
           data-old_color="#000000"
           id="path58"
           inkscape:connector-curvature="0" />
        <path
           d="m 19,39 h 16 v 2 H 19 Z"
           data-original="#000000"
           class=""
           style="fill:#000000"
           data-old_color="#000000"
           id="path60"
           inkscape:connector-curvature="0" />
      </g>
    </g>
  </g>
</svg>
